packages/design-assets/icons/24px/Home.svg

<?xml version="1.0" encoding="UTF-8"?>
<svg width="24px" height="24px" viewBox="0 0 24 24" version="1.1" xmlns="http://www.w3.org/2000/svg" xmlns:xlink="http://www.w3.org/1999/xlink">
    <!-- Generator: Sketch 54.1 (76490) - https://sketchapp.com -->
    <title>Icons/24px/Home</title>
    <desc>Created with Sketch.</desc>
    <g id="Icons/24px/Home" stroke="none" stroke-width="1" fill="none" fill-rule="evenodd">
        <path d="M3.00267281,12.5247398 L1.6753456,13.7314009 L0.330000013,12.2515207 L4.00267281,8.91272726 L4.00267281,3 L8.00267281,3 L8.00267281,5.27636362 L12.0026728,1.63999999 L23.6753456,12.2515207 L22.33,13.7314009 L21.0026728,12.5247398 L21.0026728,24 L13.0026728,24 L13.0026728,19 L11.0026728,19 L11.0026728,24 L3.00267281,24 L3.00267281,12.5247398 Z M5.00267281,10.7065579 L5.00267281,22 L9.00267281,22 L9.00267281,17 L15.0026728,17 L15.0026728,22 L19.0026728,22 L19.0026728,10.7065579 L12.0026728,4.34292158 L5.00267281,10.7065579 Z M15.0026728,9 L15.0026728,15 L9.00267281,15 L9.00267281,9 L15.0026728,9 Z M11.0026728,11 L11.0026728,13 L13.0026728,13 L13.0026728,11 L11.0026728,11 Z" id="i-24-home" fill="#818F99"></path>
    </g>
</svg>

<svg width="24" height="24" xmlns="http://www.w3.org/2000/svg"><path d="M3.003 12.525L1.675 13.73.33 12.251l3.673-3.338V3h4v2.276l4-3.636 11.672 10.612-1.345 1.48-1.327-1.207V24h-8v-5h-2v5h-8V12.525zm2-1.818V22h4v-5h6v5h4V10.707l-7-6.364-7 6.364zm10-1.707v6h-6V9h6zm-4 2v2h2v-2h-2z" fill="#818F99" fill-rule="evenodd"/></svg>
